svgs/thin/mobile-screen.svg

<svg xmlns="http://www.w3.org/2000/svg" viewBox="0 0 384 512"><!-- Font Awesome Pro 6.0.0-alpha2 by @fontawesome - https://fontawesome.com License - https://fontawesome.com/license (Commercial License) --><path d="M144 456H240C244.406 456 248 452.422 248 448S244.406 440 240 440H144C139.594 440 136 443.578 136 448S139.594 456 144 456ZM304 0H80C53.5 0 32 21.5 32 48V464C32 490.5 53.5 512 80 512H304C330.5 512 352 490.5 352 464V48C352 21.5 330.5 0 304 0ZM336 464C336 481.645 321.645 496 304 496H80C62.355 496 48 481.645 48 464V400H336V464ZM336 384H48V48C48 30.355 62.355 16 80 16H304C321.645 16 336 30.355 336 48V384Z"/></svg>

<svg xmlns="http://www.w3.org/2000/svg" viewBox="0 0 384 512"><!--! Font Awesome Pro 6.3.0 by @fontawesome - https://fontawesome.com License - https://fontawesome.com/license (Commercial License) Copyright 2023 Fonticons, Inc. --><path d="M144 456h96c4.406 0 8-3.578 8-8s-3.594-8-8-8h-96c-4.406 0-8 3.578-8 8S139.6 456 144 456zM304 0h-224C53.5 0 32 21.5 32 48v416C32 490.5 53.5 512 80 512h224c26.5 0 48-21.5 48-48v-416C352 21.5 330.5 0 304 0zM336 464c0 17.64-14.36 32-32 32h-224c-17.64 0-32-14.36-32-32v-64h288V464zM336 384h-288V48c0-17.64 14.36-32 32-32h224c17.64 0 32 14.36 32 32V384z"/></svg>
